X: 33797
T: Ray's Classic
R: polka
M: 2/4
K: Amajor
|:A>A AE|FA E2|F/G/A Bc|dB cB|
A>A AE|FA E2|F/G/A BG|1 AE FG:|2 AB cd||
|:e>e eA|f>f f2|Bf Bf|g>g g2|
cg cg|a2 ag/f/|ec BA/B/|1 cA cd:|2 cA AG||

